icons/fill-new-finance-bank-card.svg

<svg xmlns="http://www.w3.org/2000/svg" width="32px" height="32px" viewBox="0 0 32 32" version="1.1">
    <title>fill-new-finance-bank-card</title>
    <g id="fill-new-finance-bank-card" stroke-width="1" fill-rule="evenodd">
        <path d="M30,14 L30,23 C30,25.209139 28.209139,27 26,27 L6,27 C3.790861,27 2,25.209139 2,23 L2,14 L30,14 Z M13,20 L7,20 C6.44771525,20 6,20.4477153 6,21 C6,21.5522847 6.44771525,22 7,22 L13,22 C13.5522847,22 14,21.5522847 14,21 C14,20.4477153 13.5522847,20 13,20 Z M26,5 C28.209139,5 30,6.790861 30,9 L30,11 L2,11 L2,9 C2,6.790861 3.790861,5 6,5 L26,5 Z" id="&#24418;&#29366;" />
    </g>
</svg>

<svg xmlns="http://www.w3.org/2000/svg" viewBox="0 0 32 32"><path fill="currentColor" d="M30 14v9a4 4 0 0 1-4 4H6a4 4 0 0 1-4-4v-9zm-17 6H7a1 1 0 0 0 0 2h6a1 1 0 0 0 0-2M26 5a4 4 0 0 1 4 4v2H2V9a4 4 0 0 1 4-4z"/></svg>
